X: 1232
T: The Day We Paid the Rent
M:C|
L:1/8
R:Reel
B:O'Neill's 1232
N:
Z:Transcribed by Trish O'Neil
K:G
ge \
| dGBG dGBe | dGBG FGAe | dGBG dGBd |1 efga bage :|2 efga bgg2 |
|| bagf gdBd | egdB BAA2 | bagf gdBd | egeag2ga |
| bagf gdBd | egdB BAAc | BGdG eGdG | egfag2 ||


